X: 1054
T: Jigg
%R: jig, waltz
B: Henry Playford "Apollo's Banquet", London 1687 (5th Edition)
F: https://archive.org/details/apollosbanquetco01rugg
Z: 2017 John Chambers <jc:trillian.mit.edu>
M: 6/4
L: 1/8
K: D
% - - - - - - - - - -
a2 |\
f3ga2 g4f2 | e3dc2 (dB3)e2 | c6 A4d2 |\
A3GF2 (GE3)F2 | (GA3)B2 (AF3)G2 | E6 D4 :|
|: E2 |\
A3GF2 G2A2B2 | c3Bc2 (dB3)e2 | c6 e4f2 |\
g3fg2 (af3)g2 | (ec3)d2 (BA3)f2 | e6 d4 |]
% - - - - - - - - - -

%%sep 1 1 500
%%sep 1 1 500

